packages/icons/src/environment-group-outline.svg

<svg fill="none" viewBox="0 0 30 29" xmlns="http://www.w3.org/2000/svg"><g stroke="#fff"><path d="m15.4042 10.8232c.0893.1547.0893.3453 0 .5l-1.6516 2.8607c-.0893.1547-.2544.25-.433.25h-3.3034c-.17859 0-.34366-.0953-.43297-.25l-1.65166-2.8607-.43301.25.43301-.25c-.08932-.1547-.08932-.3453 0-.5l1.65166-2.86077c.08931-.1547.25438-.25.43297-.25h3.3034c.1786 0 .3437.0953.433.25z"/><path d="m14.0072 4.46451-5.91716-.00003c-.35633 0-.68574.18961-.86471.49773l-2.61861 4.50825c-.16498.28403-.17996.63094-.04007.92814l1.89267 4.0209c.13861.2944.12524.638-.03584.9208l-1.793 3.148c-.17756.3118-.17451.6948.00799 1.0036l2.58568 4.3763c.17991.3045.50727.4913.86095.4913h5.9475c.3598 0 .6919-.1933.8696-.5062l1.6835-2.9647c.1777-.3129.5097-.5062.8696-.5062h3.3594c.3453 0 .6661-.1781.8487-.4711l2.8165-4.5189c.1934-.3102.202-.7013.0225-1.0199l-2.8457-5.04983c-.1773-.31449-.5102-.50905-.8712-.50905h-3.3049c-.3732 0-.7154-.20789-.8874-.53915l-1.6985-3.27082c-.172-.33126-.5142-.53914-.8875-.53914z"/><path d="m15.5007 17.705c.0893.1547.0893.3453 0 .5l-1.6517 2.8608c-.0893.1547-.2544.25-.433.25h-3.3033c-.17866 0-.34372-.0953-.43304-.25l-1.65165-2.8608-.43302.25.43302-.25c-.08932-.1547-.08932-.3453 0-.5l1.65165-2.8607c.08932-.1547.25438-.25.43304-.25h3.3033c.1786 0 .3437.0953.433.25z"/><path d="m21.0395 14.3896c.0894.1547.0894.3453 0 .5l-1.6516 2.8608c-.0893.1547-.2544.25-.433.25h-3.3033c-.1787 0-.3437-.0953-.4331-.25l-1.6516-2.8608-.433.25.433-.25c-.0893-.1547-.0893-.3453 0-.5l1.6516-2.8608c.0894-.1547.2544-.25.4331-.25h3.3033c.1786 0 .3437.0953.433.25z"/></g></svg>

<svg viewBox="0 0 30 29" fill="none" xmlns="http://www.w3.org/2000/svg">
<path d="M15.4042 10.8232C15.4935 10.9779 15.4935 11.1685 15.4042 11.3232L13.7526 14.1839C13.6633 14.3386 13.4982 14.4339 13.3196 14.4339L10.0162 14.4339C9.83761 14.4339 9.67254 14.3386 9.58323 14.1839L7.93157 11.3232L7.49856 11.5732L7.93157 11.3232C7.84225 11.1685 7.84225 10.9779 7.93157 10.8232L9.58323 7.96243C9.67254 7.80773 9.83761 7.71243 10.0162 7.71243L13.3196 7.71243C13.4982 7.71243 13.6633 7.80773 13.7526 7.96243L15.4042 10.8232Z" stroke="white"/>
<path d="M14.0072 4.46451L8.09004 4.46448C7.73371 4.46448 7.4043 4.65409 7.22533 4.96221L4.60672 9.47046C4.44174 9.75449 4.42676 10.1014 4.56665 10.3986L6.45932 14.4195C6.59793 14.7139 6.58456 15.0575 6.42348 15.3403L4.63048 18.4883C4.45292 18.8001 4.45597 19.1831 4.63847 19.4919L7.22415 23.8682C7.40406 24.1727 7.73142 24.3595 8.0851 24.3595L14.0326 24.3595C14.3924 24.3595 14.7245 24.1662 14.9022 23.8533L16.5857 20.8886C16.7634 20.5757 17.0954 20.3824 17.4553 20.3824L20.8147 20.3824C21.16 20.3824 21.4808 20.2043 21.6634 19.9113L24.4799 15.3924C24.6733 15.0822 24.6819 14.6911 24.5024 14.3725L21.6567 9.32267C21.4794 9.00818 21.1465 8.81362 20.7855 8.81362L17.4806 8.81362C17.1074 8.81362 16.7652 8.60573 16.5932 8.27447L14.8947 5.00365C14.7227 4.67239 14.3805 4.46451 14.0072 4.46451Z" stroke="white"/>
<path d="M15.5007 17.705C15.59 17.8597 15.59 18.0503 15.5007 18.205L13.849 21.0658C13.7597 21.2205 13.5946 21.3158 13.416 21.3158L10.1127 21.3158C9.93404 21.3158 9.76898 21.2205 9.67966 21.0658L8.02801 18.205L7.59499 18.455L8.02801 18.205C7.93869 18.0503 7.93869 17.8597 8.02801 17.705L9.67966 14.8443C9.76898 14.6896 9.93404 14.5943 10.1127 14.5943L13.416 14.5943C13.5946 14.5943 13.7597 14.6896 13.849 14.8443L15.5007 17.705Z" stroke="white"/>
<path d="M21.0395 14.3896C21.1289 14.5443 21.1289 14.7349 21.0395 14.8896L19.3879 17.7504C19.2986 17.9051 19.1335 18.0004 18.9549 18.0004L15.6516 18.0004C15.4729 18.0004 15.3079 17.9051 15.2185 17.7504L13.5669 14.8896L13.1339 15.1396L13.5669 14.8896C13.4776 14.7349 13.4776 14.5443 13.5669 14.3896L15.2185 11.5288C15.3079 11.3741 15.4729 11.2788 15.6516 11.2788L18.9549 11.2788C19.1335 11.2788 19.2986 11.3741 19.3879 11.5288L21.0395 14.3896Z" stroke="white"/>
</svg>
